icons/linear-ele-time-alarm-clock.svg

<svg xmlns="http://www.w3.org/2000/svg" width="32px" height="32px" viewBox="0 0 32 32" version="1.1">
    <title>linear-ele-time-alarm-clock</title>
    <g id="linear-ele-time-alarm-clock" stroke-width="1" fill-rule="evenodd">
        <path d="M16,4 C22.627417,4 28,9.372583 28,16 C28,20.1686561 25.8743748,23.8408459 22.647868,25.9918258 L24.3682431,29.0038611 C24.6422531,29.4833785 24.4756564,30.0942332 23.9961389,30.3682431 C23.5166215,30.6422531 22.9057668,30.4756564 22.6317569,29.9961389 L20.895953,26.9590682 C19.4008627,27.6280164 17.7438721,28 16,28 C14.2561279,28 12.5991373,27.6280164 11.104047,26.9590682 L9.36824314,29.9961389 C9.09423317,30.4756564 8.48337851,30.6422531 8.00386106,30.3682431 C7.52434362,30.0942332 7.35774689,29.4833785 7.63175686,29.0038611 L9.35335212,25.9910693 C6.12606767,23.8416103 4,20.16909 4,16 C4,9.372583 9.372583,4 16,4 Z M16,6 C10.4771525,6 6,10.4771525 6,16 C6,21.5228475 10.4771525,26 16,26 C21.5228475,26 26,21.5228475 26,16 C26,10.4771525 21.5228475,6 16,6 Z M15,9 C15.5522847,9 16,9.44771525 16,10 L16,16 L21,16 C21.5128358,16 21.9355072,16.3860402 21.9932723,16.8833789 L22,17 C22,17.5522847 21.5522847,18 21,18 L15,18 C14.4477153,18 14,17.5522847 14,17 L14,10 C14,9.44771525 14.4477153,9 15,9 Z M25,2 C27.7614237,2 30,4.23857625 30,7 C30,8.2522176 29.5396741,9.39692033 28.7790109,10.2741197 C28.4710763,9.58735741 28.1097958,8.93103106 27.7002885,8.30928478 C27.8921514,7.9137985 28,7.46949394 28,7 C28,5.34314575 26.6568542,4 25,4 C24.5305061,4 24.0862015,4.1078486 23.690509,4.30012311 C23.0689689,3.89020419 22.4126426,3.52892369 21.7270606,3.22119436 C22.6030797,2.46032588 23.7477824,2 25,2 Z M7,2 C8.2522176,2 9.39692033,2.46032588 10.2741197,3.22098909 C9.58735741,3.52892369 8.93103106,3.89020419 8.30928478,4.29971147 C7.9137985,4.1078486 7.46949394,4 7,4 C5.34314575,4 4,5.34314575 4,7 C4,7.46949394 4.1078486,7.9137985 4.30012311,8.30949096 C3.89020419,8.93103106 3.52892369,9.58735741 3.22119436,10.2729394 C2.46032588,9.39692033 2,8.2522176 2,7 C2,4.23857625 4.23857625,2 7,2 Z" id="&#24418;&#29366;" fill-rule="nonzero" />
    </g>
</svg>

<svg xmlns="http://www.w3.org/2000/svg" viewBox="0 0 32 32"><path fill="currentColor" d="M16 4c6.627 0 12 5.373 12 12 0 4.169-2.126 7.84-5.352 9.992l1.72 3.012a1 1 0 1 1-1.736.992l-1.736-3.037A11.958 11.958 0 0 1 16 28c-1.744 0-3.4-.372-4.896-1.04l-1.736 3.036a1 1 0 1 1-1.736-.992l1.721-3.013A11.984 11.984 0 0 1 4 16C4 9.373 9.373 4 16 4m0 2C10.477 6 6 10.477 6 16s4.477 10 10 10 10-4.477 10-10S21.523 6 16 6m-1 3a1 1 0 0 1 1 1v6h5a1 1 0 0 1 .993.883L22 17a1 1 0 0 1-1 1h-6a1 1 0 0 1-1-1v-7a1 1 0 0 1 1-1m10-7a5 5 0 0 1 3.779 8.274A13.94 13.94 0 0 0 27.7 8.31a3 3 0 0 0-4.01-4.01 13.918 13.918 0 0 0-1.963-1.078A4.974 4.974 0 0 1 25 2M7 2a4.98 4.98 0 0 1 3.274 1.221A13.94 13.94 0 0 0 8.31 4.3 3 3 0 0 0 4.3 8.31c-.409.621-.77 1.277-1.078 1.963A5 5 0 0 1 7 2"/></svg>
